assets/images/script/p-6-e2.svg

<svg fill="none" height="155" viewBox="0 0 280 155" width="280" xmlns="http://www.w3.org/2000/svg"><path d="m74.9404 143.334c-4.5063-2.404 13.25 3.193 13.8273 3.313 24.0733 5.024 51.0203.65 71.3663-13.636 11.916-8.366 13.845-17.086 2.073-28.938-11.555-11.6348-26.839-13.6205-37.555.51-12.243 16.144 1.685 28.378 14.709 35.883 18.82 10.845 47.667 15.832 67.99 6.5 16.304-7.487 22.355-28.568 16.249-44.732-6.728-17.8076-23.509-33.4114-39.826-42.4376-41.123-22.7493-89.449-7.5712-133.5571-8.2199-14.378-.2114-33.6935-2.0991-44.79525-12.6166-10.61004-10.0516 16.72445-24.4855 22.68435-26.6947 47.4761-17.59894 97.389-6.72992 143.944 7.5189 30.445 9.3184 61.251 11.6124 93.286 7.774 4.887-.5855 15.198-1.2742 10.323-7.7739" stroke="#000" stroke-linecap="round" stroke-width="5"/></svg>

<svg width="280" height="155" viewBox="0 0 280 155" fill="none" xmlns="http://www.w3.org/2000/svg">
<path d="M74.9404 143.334C70.4341 140.93 88.1904 146.527 88.7677 146.647C112.841 151.671 139.788 147.297 160.134 133.011C172.05 124.645 173.979 115.925 162.207 104.073C150.652 92.4382 135.368 90.4525 124.652 104.583C112.409 120.727 126.337 132.961 139.361 140.466C158.181 151.311 187.028 156.298 207.351 146.966C223.655 139.479 229.706 118.398 223.6 102.234C216.872 84.4264 200.091 68.8226 183.774 59.7964C142.651 37.0471 94.325 52.2252 50.2169 51.5765C35.8389 51.3651 16.5234 49.4774 5.42165 38.9599C-5.18839 28.9083 22.1461 14.4744 28.106 12.2652C75.5821 -5.33374 125.495 5.53528 172.05 19.7841C202.495 29.1025 233.301 31.3965 265.336 27.5581C270.223 26.9726 280.534 26.2839 275.659 19.7842" stroke="black" stroke-width="5" stroke-linecap="round"/>
</svg>
